X: 28214
T: Mrs. Delaney
R: reel
M: 4/4
K: Dmixolydian
c(AGF) G2(AF)|DGBG dGB(d|cA)GF G2 (3efg|fdc(A d)fed|
c(AGF) G2(AF)|DGBd c2(BA)|FGAB c(d (3efg)|f(dcA) d2(cA)||
G(ggf) g2(ag)|fd (3efg (fd)cA|G(ggf) g2 (3efg|fdc(A BG)AF|
G(ggf) g2(fg)|aba(f g2)fg|(3agf (3gfe (3fed (fd)|cAGA f2(ed)||

